X:1
T:Montserrat, 76.76 D
T:Montserrat, 76.76 D
T:John Hoag, Jr., 1896
T:Public Domain Courtesy of the Cyber Hymnal™
C:John Hoag, Jr., 1896
Z:Public Domain
Z:Courtesy of the Cyber Hymnal™
%%score 1 ( 2 3 )
L:1/8
Q:1/4=110
M:4/4
K:Eb
V:1 treble 
V:2 bass 
V:3 bass 
V:1
 [GB]2 | [GB]3 [GB] [Ac]2 [AB]2 | [Ge]2 [GB]2 z2 [GB]2 | [GB]3 [GB] [GB]2 [FA]2 | [EG]4 z2 [FG]2 | %5
 [EG]3 [EG] [FA]2 [FG]2 | [Ec]2 [EG]2 z2 [Ee]2 | [Fd]3 [Ec] [DB]2 [E=A]2 | [DB]4 z2 [FB]2 | %9
 [FB]3 [FB] [Fc]2 [Fd]2 | [Ee]2 [EB]2 z2 [DB]2 | [_DB]3 [DB] [Dc]2 [DB]2 | [CA]6 [CA]2 | %13
 [CA]3 [CA] [_CE]2 [CF]2 | [B,G]2 [B,G]4 [EG]2 | [DA]2 [DG]2 [DF]3 [B,E] | [B,E]6 |] %17
V:2
 [E,E]2 | [E,E]3 [E,E] [E,C]2 [E,D]2 | [E,E]2 [E,E]2 z2 [E,E]2 | [B,E]3 [B,E] [B,D]2 [B,D]2 | %4
 [E,B,]4 z2 [D,=B,]2 | [C,C]3 [C,C] [D,=B,]2 [D,B,]2 | [C,C]2 [C,C]2 z2 [C,G,]2 | %7
 [D,B,]3 [E,G,] F,2 [F,C]2 | [B,,B,]4 z2 [B,D]2 | [A,D]3 [A,D] [A,D]2 [A,B,]2 | %10
 [G,B,]2 [G,B,]2 z2 [F,A,]2 | [E,G,]3 [E,G,] [E,F,]2 [E,G,]2 | [A,,E,]6 [A,,E,]2 | %13
 [A,,E,]3 [A,,E,] [A,,E,]2 [A,,E,]2 | [B,,E,]2 [B,,F,]4 [B,,B,]2 | %15
 [B,,C]2 [B,,B,]2 [B,,A,]3 [E,G,] | [E,G,]6 |] %17
V:3
 x2 | x8 | x8 | x8 | x8 | x8 | x8 | x4 F,2 x2 | x8 | x8 | x8 | x8 | x8 | x8 | x8 | x8 | x6 |] %17

